X:1
T:Kiev, 76.76.76 D
T:Kiev, 76.76.76 D
T:Robert Lowry, 1873
T:Public Domain Courtesy of the Cyber Hymnal™
C:Robert Lowry, 1873
Z:Public Domain
Z:Courtesy of the Cyber Hymnal™
%%score ( 1 2 ) ( 3 4 )
L:1/8
Q:1/4=105
M:6/8
K:Ab
V:1 treble 
V:2 treble 
V:3 bass 
V:4 bass 
V:1
"^Gently" [CE] | [Ec]2 [DB] [CA]2 [DB] | [CA]3 [CE]2 [CE] | [DF]2 [DA] [DA]2 [DB] | %4
 [CA]3- [CA]2 [CA] | [EB]2 [EB] (Bc)[Ed] | [Ec]3 [CA]2 [Ec] | [Ee]2 [Ec] [=Dc]2 [DA] | %8
 [EB]3- [EB]2 E | [Ed]2 [Ec] (Bc)[Ed] | [Ec]3 [CA]2 [CA] | [DA]2 [DB] [DA]2 [DF] | %12
 [CE]3- [CE]2 [CE] | [EA]2 [EA] [Ec]2 [_Ge] | [Fd]3 [Fc]2 [FB] | [EA]2 [EA] (GA)[EB] | %16
 [EA]3- [EA]2 E | [Ed]2 [Ec] (Bc)[Ed] | [Ec]3 [CA]2 [CA] | [DA]2 [DB] [DA]2 [DF] | %20
 [CE]3- [CE]2 [CE] | [EA]2 [EA] [Ec]2 [_Ge] | [Fd]3 [Fc]2 [FB] | [EA]2 [EA] (GA)[EB] | %24
 [EA]3- [EA]2 |] %25
V:2
 x | x6 | x6 | x6 | x6 | x3 E2 x | x6 | x6 | x5 E | x3 E2 x | x6 | x6 | x6 | x6 | x6 | x3 E2 x | %16
 x5 E | x3 E2 x | x6 | x6 | x6 | x6 | x6 | x3 E2 x | x5 |] %25
V:3
 [A,,A,] | [A,,A,]2 [A,,A,] [A,,A,]2 [A,,A,] | [A,,A,]3 [A,,A,]2 [A,,A,] | %3
 [D,A,]2 [D,F,] [D,F,]2 [D,F,] | [A,,E,]3- [A,,E,]2 [A,,A,] | [E,G,]2 [E,G,] (G,A,)[E,B,] | %6
 [A,,A,]3 [A,,A,]2 A, | [A,C]2 A, [F,A,]2 [F,A,] | [E,G,]3- [E,G,]2 E, | %9
 [E,B,]2 [E,A,] (G,A,)[E,B,] | A,3 [A,,A,]2 [A,,A,] | [D,F,]2 [D,F,] [D,F,]2 [D,A,] | %12
 [A,,A,]3- [A,,A,]2 A, | [A,C]2 [A,C] A,2 [C,A,] | [D,A,]3 [D,A,]2 [D,D] | %15
 [E,C]2 [E,C] (B,C)[E,D] | [A,,C]3- [A,,C]2 E, | [E,B,]2 [E,A,] (G,A,)[E,B,] | %18
 A,3 [A,,A,]2 [A,,A,] | [D,F,]2 [D,F,] [D,F,]2 [D,A,] | [A,,A,]3- [A,,A,]2 A, | %21
 [A,C]2 [A,C] A,2 [C,A,] | [D,A,]3 [D,A,]2 [D,D] | [E,C]2 [E,C] (B,C)[E,D] | [A,,C]3- [A,,C]2 |] %25
V:4
 x | x6 | x6 | x6 | x6 | x3 E,2 x | x5 A, | x2 A, x3 | x5 E, | x3 E,2 x | A,3 x3 | x6 | x5 A, | %13
 x3 A,2 x | x6 | x3 E,2 x | x5 E, | x3 E,2 x | A,3 x3 | x6 | x5 A, | x3 A,2 x | x6 | x3 E,2 x | %24
 x5 |] %25

